;FLAVOR:Marlin
;TIME:23058
;Filament used: 14.6227m
;Layer height: 0.2
;MINX:51.473
;MINY:30.677
;MINZ:0.2
;MAXX:183.527
;MAXY:204.323
;MAXZ:30.6
;Generated with Cura_SteamEngine 4.6.1
M140 S50
M105
M190 S50
M104 S200
M105
M109 S200
M82 ;absolute extrusion mode
; Ender 3 Custom Start G-code
G92 E0 ; Reset Extruder
G28 ; Home all axes
G1 Z2.0 F3000 ; Move Z Axis up little to prevent scratching of Heat Bed
G1 X0.1 Y20 Z0.3 F5000.0 ; Move to start position
G1 X0.1 Y200.0 Z0.3 F1500.0 E15 ; Draw the first line
G1 X0.4 Y200.0 Z0.3 F5000.0 ; Move to side a little
G1 X0.4 Y20 Z0.3 F1500.0 E30 ; Draw the second line
G92 E0 ; Reset Extruder
G1 Z2.0 F3000 ; Move Z Axis up little to prevent scratching of Heat Bed
G1 X5 Y20 Z0.3 F5000.0 ; Move over to prevent blob squish
G92 E0
G92 E0
G1 F2700 E-5
;LAYER_COUNT:153
;LAYER:0
M107
G0 F6000 X172.664 Y31.488 Z0.2
;TYPE:SKIRT
G1 F2700 E0
G1 F1200 X173.566 Y31.541 E0.03005
G1 X174.459 Y31.673 E0.06008
G1 X175.337 Y31.884 E0.09011
G1 X176.193 Y32.172 E0.12015
G1 X177.02 Y32.534 E0.15018
G1 X177.812 Y32.969 E0.18023
G1 X178.563 Y33.471 E0.21027
G1 X179.266 Y34.038 E0.24031
G1 X179.916 Y34.665 E0.27035
G1 X180.508 Y35.347 E0.30039
G1 X181.038 Y36.078 E0.33042
G1 X181.5 Y36.854 E0.36046
G1 X181.893 Y37.667 E0.39049
G1 X182.211 Y38.512 E0.42052
G1 X182.454 Y39.382 E0.45056
G1 X182.619 Y40.27 E0.4806
G1 X182.714 Y41.4 E0.51832
G1 X182.727 Y42.007 E0.53851
G1 X182.726 Y78.99 E1.76857
G1 X182.716 Y79.719 E1.79282
G1 X182.664 Y80.62 E1.82284
G1 X182.532 Y81.514 E1.8529
G1 X182.321 Y82.392 E1.88293
G1 X181.997 Y83.342 E1.91632
G1 X181.774 Y83.904 E1.93643
G1 X180.811 Y86.406 E2.02559
G1 X179.958 Y88.819 E2.11072
G1 X179.185 Y91.225 E2.19477
G1 X178.475 Y93.669 E2.27942
G1 X177.836 Y96.124 E2.36379
G1 X177.261 Y98.616 E2.44885
G1 X176.768 Y101.081 E2.53246
G1 X176.339 Y103.588 E2.61706
G1 X175.986 Y106.071 E2.70047
G1 X175.695 Y108.627 E2.78604
G1 X175.48 Y111.162 E2.87065
G1 X175.336 Y113.702 E2.95527
G1 X175.264 Y116.236 E3.03959
G1 X175.264 Y118.769 E3.12383
G1 X175.336 Y121.302 E3.20812
G1 X175.481 Y123.865 E3.2935
G1 X175.694 Y126.363 E3.37688
G1 X175.983 Y128.91 E3.46214
G1 X176.339 Y131.412 E3.54619
G1 X176.769 Y133.914 E3.63063
G1 X177.269 Y136.412 E3.71536
G1 X177.83 Y138.849 E3.79854
G1 X178.483 Y141.36 E3.88483
G1 X179.183 Y143.769 E3.96827
G1 X179.963 Y146.194 E4.053
G1 X180.814 Y148.603 E4.13797
G1 X181.73 Y150.98 E4.2227
G1 X182.028 Y151.731 E4.24957
G1 X182.316 Y152.587 E4.27961
G1 X182.528 Y153.465 E4.30965
G1 X182.661 Y154.358 E4.33968
G1 X182.708 Y155.042 E4.36248
G1 X182.72 Y155.374 E4.37353
G1 X182.727 Y155.742 E4.38578
G1 X182.726 Y192.713 E5.61544
G1 X182.717 Y193.44 E5.63962
G1 X182.666 Y194.342 E5.66967
G1 X182.535 Y195.236 E5.69972
G1 X182.326 Y196.114 E5.72974
G1 X182.04 Y196.971 E5.75979
G1 X181.679 Y197.799 E5.78983
G1 X181.247 Y198.591 E5.81984
G1 X180.746 Y199.343 E5.84989
G1 X180.18 Y200.047 E5.87993
G1 X179.555 Y200.698 E5.90995
G1 X178.874 Y201.292 E5.94001
G1 X178.143 Y201.823 E5.97006
G1 X177.369 Y202.287 E6.00007
G1 X176.556 Y202.681 E6.03012
G1 X175.712 Y203.001 E6.06014
G1 X174.842 Y203.246 E6.0902
G1 X173.955 Y203.412 E6.12022
G1 X172.804 Y203.51 E6.15864
G1 X172.197 Y203.523 E6.17883
G1 X63.18 Y203.523 E9.80475
G1 X62.35 Y203.513 E9.83236
G1 X61.449 Y203.462 E9.86237
G1 X60.555 Y203.33 E9.89243
G1 X59.677 Y203.121 E9.92245
G1 X58.82 Y202.834 E9.95251
G1 X57.993 Y202.473 E9.98252
G1 X57.2 Y202.04 E10.01257
G1 X56.449 Y201.539 E10.0426
G1 X55.745 Y200.973 E10.07264
G1 X55.094 Y200.347 E10.10268
G1 X54.501 Y199.666 E10.13272
G1 X53.971 Y198.935 E10.16275
G1 X53.507 Y198.16 E10.19279
G1 X53.113 Y197.347 E10.22284
G1 X52.793 Y196.503 E10.25286
G1 X52.549 Y195.633 E10.28291
G1 X52.383 Y194.745 E10.31296
G1 X52.286 Y193.59 E10.35151
G1 X52.273 Y192.981 E10.37177
G1 X52.274 Y155.973 E11.60266
G1 X52.284 Y155.276 E11.62585
G1 X52.337 Y154.374 E11.6559
G1 X52.469 Y153.481 E11.68592
G1 X52.68 Y152.603 E11.71596
G1 X53.001 Y151.664 E11.74896
G1 X53.226 Y151.096 E11.76928
G1 X54.189 Y148.594 E11.85845
G1 X55.042 Y146.181 E11.94357
G1 X55.815 Y143.775 E12.02763
G1 X56.525 Y141.331 E12.11228
G1 X57.164 Y138.876 E12.19665
G1 X57.739 Y136.384 E12.28171
G1 X58.232 Y133.919 E12.36532
G1 X58.661 Y131.412 E12.44992
G1 X59.014 Y128.929 E12.53333
G1 X59.305 Y126.373 E12.61889
G1 X59.52 Y123.838 E12.70351
G1 X59.664 Y121.298 E12.78813
G1 X59.736 Y118.764 E12.87244
G1 X59.736 Y116.231 E12.95669
G1 X59.664 Y113.698 E13.04097
G1 X59.519 Y111.137 E13.12629
G1 X59.306 Y108.63 E13.20997
G1 X59.018 Y106.098 E13.29473
G1 X58.659 Y103.577 E13.37942
G1 X58.233 Y101.091 E13.46331
G1 X57.731 Y98.588 E13.54822
G1 X57.17 Y96.151 E13.6314
G1 X56.517 Y93.64 E13.71769
G1 X55.82 Y91.241 E13.80078
G1 X55.03 Y88.785 E13.88659
G1 X54.195 Y86.419 E13.97004
G1 X53.263 Y84.002 E14.0562
G1 X53.071 Y83.526 E14.07327
G1 X52.958 Y83.231 E14.08378
G1 X52.672 Y82.374 E14.11383
G1 X52.464 Y81.495 E14.14387
G1 X52.334 Y80.601 E14.17392
G1 X52.288 Y79.897 E14.19738
G1 X52.273 Y79.258 E14.21864
G1 X52.274 Y42.213 E15.45076
G1 X52.283 Y41.548 E15.47288
G1 X52.335 Y40.646 E15.50293
G1 X52.467 Y39.753 E15.53296
G1 X52.677 Y38.875 E15.56298
G1 X52.964 Y38.018 E15.59304
G1 X53.326 Y37.191 E15.62307
G1 X53.759 Y36.399 E15.65309
G1 X54.261 Y35.648 E15.68314
G1 X54.828 Y34.944 E15.7132
G1 X55.454 Y34.294 E15.74322
G1 X56.135 Y33.701 E15.77325
G1 X56.867 Y33.171 E15.80331
G1 X57.642 Y32.708 E15.83334
G1 X58.455 Y32.315 E15.86337
G1 X59.3 Y31.995 E15.89342
G1 X60.169 Y31.752 E15.92343
G1 X61.057 Y31.586 E15.95348
G1 X62.196 Y31.49 E15.9915
G1 X62.803 Y31.477 E16.01169
G1 X171.82 Y31.477 E19.63761
G1 X171.966 Y31.478 E19.64247
G1 X172.664 Y31.488 E19.66569
G0 F6000 X172.67 Y31.088
G1 F1200 X173.589 Y31.141 E19.6963
G1 X174.5 Y31.274 E19.72692
G1 X175.396 Y31.485 E19.75754
G1 X176.27 Y31.773 E19.78815
G1 X177.117 Y32.136 E19.8188
G1 X177.928 Y32.571 E19.84941
G1 X178.698 Y33.075 E19.88001
G1 X179.422 Y33.644 E19.91064
G1 X180.094 Y34.274 E19.94128
G1 X180.709 Y34.959 E19.9719
G1 X181.262 Y35.695 E20.00252
G1 X181.749 Y36.476 E20.03313
G1 X182.166 Y37.297 E20.06376
G1 X182.511 Y38.151 E20.09439
G1 X182.78 Y39.031 E20.125
G1 X182.972 Y39.932 E20.15564
G1 X183.085 Y40.845 E20.18623
G1 X183.114 Y41.389 E20.20435
G1 X183.127 Y42.007 E20.22491
G1 X183.126 Y78.995 E21.45514
G1 X183.116 Y79.724 E21.47939
G1 X183.063 Y80.644 E21.51004
G1 X182.931 Y81.555 E21.54065
G1 X182.721 Y82.451 E21.57126
G1 X182.369 Y83.49 E21.60775
G1 X182.107 Y84.15 E21.63137
G1 X181.189 Y86.535 E21.71637
G1 X180.341 Y88.937 E21.80109
G1 X179.567 Y91.343 E21.88515
G1 X178.87 Y93.744 E21.96831
G1 X178.219 Y96.243 E22.0542
G1 X177.655 Y98.687 E22.13762
G1 X177.163 Y101.149 E22.22113
G1 X176.729 Y103.681 E22.30657
G1 X176.38 Y106.136 E22.38904
G1 X176.092 Y108.67 E22.47387
G1 X175.879 Y111.183 E22.55775
G1 X175.736 Y113.702 E22.64167
G1 X175.664 Y116.247 E22.72635
G1 X175.664 Y118.758 E22.80987
G1 X175.736 Y121.302 E22.89451
G1 X175.878 Y123.809 E22.97803
G1 X176.095 Y126.355 E23.06302
G1 X176.377 Y128.84 E23.1462
G1 X176.737 Y131.365 E23.23103
G1 X177.161 Y133.84 E23.31455
G1 X177.658 Y136.316 E23.39854
G1 X178.219 Y138.756 E23.48181
G1 X178.868 Y141.252 E23.56759
G1 X179.565 Y143.65 E23.65065
G1 X180.345 Y146.075 E23.73538
G1 X181.192 Y148.474 E23.81999
G1 X182.092 Y150.81 E23.90326
G1 X182.401 Y151.586 E23.93104
G1 X182.696 Y152.459 E23.96169
G1 X182.914 Y153.353 E23.99229
G1 X183.053 Y154.263 E24.02291
G1 X183.108 Y155.027 E24.04839
G1 X183.12 Y155.359 E24.05944
G1 X183.127 Y155.742 E24.07218
G1 X183.126 Y192.718 E25.302
G1 X183.117 Y193.445 E25.32619
G1 X183.066 Y194.364 E25.3568
G1 X182.935 Y195.276 E25.38744
G1 X182.725 Y196.172 E25.41805
G1 X182.439 Y197.047 E25.44867
G1 X182.078 Y197.894 E25.47929
G1 X181.644 Y198.706 E25.50992
G1 X181.142 Y199.478 E25.54054
G1 X180.574 Y200.203 E25.57118
G1 X179.946 Y200.876 E25.60179
G1 X179.262 Y201.492 E25.63241
G1 X178.527 Y202.046 E25.66302
G1 X177.747 Y202.535 E25.69364
G1 X176.927 Y202.954 E25.72427
G1 X176.074 Y203.3 E25.75488
G1 X175.194 Y203.571 E25.78551
G1 X174.294 Y203.764 E25.81612
G1 X173.38 Y203.879 E25.84676
G1 X172.815 Y203.91 E25.86558
G1 X172.197 Y203.923 E25.88614
G1 X63.18 Y203.923 E29.51206
G1 X62.345 Y203.913 E29.53984
G1 X61.426 Y203.861 E29.57045
G1 X60.515 Y203.73 E29.60106
G1 X59.619 Y203.52 E29.63167
G1 X58.744 Y203.233 E29.6623
G1 X57.897 Y202.871 E29.69294
G1 X57.085 Y202.437 E29.72356
G1 X56.314 Y201.935 E29.75416
G1 X55.589 Y201.367 E29.78479
G1 X54.916 Y200.738 E29.81543
G1 X54.301 Y200.054 E29.84603
G1 X53.747 Y199.319 E29.87664
G1 X53.259 Y198.538 E29.90727
G1 X52.84 Y197.718 E29.9379
G1 X52.494 Y196.865 E29.96851
G1 X52.224 Y195.985 E29.99913
G1 X52.031 Y195.084 E30.02978
G1 X51.917 Y194.171 E30.06038
G1 X51.886 Y193.6 E30.0794
G1 X51.873 Y192.981 E30.09999
G1 X51.874 Y155.967 E31.33108
G1 X51.884 Y155.27 E31.35426
G1 X51.937 Y154.351 E31.38488
G1 X52.07 Y153.44 E31.4155
G1 X52.281 Y152.544 E31.44612
G1 X52.629 Y151.516 E31.48222
G1 X52.891 Y150.855 E31.50587
G1 X53.811 Y148.465 E31.59104
G1 X54.659 Y146.063 E31.67577
G1 X55.433 Y143.657 E31.75983
G1 X56.13 Y141.256 E31.84298
G1 X56.781 Y138.757 E31.92887
G1 X57.345 Y136.313 E32.0123
G1 X57.837 Y133.851 E32.0958
G1 X58.271 Y131.319 E32.18125
G1 X58.62 Y128.864 E32.26372
G1 X58.908 Y126.33 E32.34855
G1 X59.121 Y123.817 E32.43243
G1 X59.264 Y121.298 E32.51635
G1 X59.336 Y118.753 E32.60103
G1 X59.336 Y116.242 E32.68454
G1 X59.264 Y113.698 E32.76919
G1 X59.122 Y111.193 E32.85264
G1 X58.904 Y108.638 E32.93793
G1 X58.624 Y106.163 E33.02077
G1 X58.263 Y103.635 E33.10571
G1 X57.84 Y101.166 E33.18902
G1 X57.341 Y98.678 E33.27342
G1 X56.781 Y96.244 E33.35649
G1 X56.129 Y93.738 E33.44262
G1 X55.432 Y91.337 E33.52577
G1 X54.659 Y88.935 E33.6097
G1 X53.82 Y86.56 E33.69347
G1 X52.896 Y84.161 E33.77898
G1 X52.697 Y83.669 E33.79663
G1 X52.584 Y83.374 E33.80714
G1 X52.293 Y82.5 E33.83778
G1 X52.078 Y81.605 E33.86839
G1 X51.942 Y80.695 E33.89899
G1 X51.888 Y79.909 E33.9252
G1 X51.878 Y79.585 E33.93598
G1 X51.873 Y79.258 E33.94686
G1 X51.874 Y42.208 E35.17914
G1 X51.883 Y41.543 E35.20126
G1 X51.935 Y40.623 E35.23191
G1 X52.067 Y39.712 E35.26253
G1 X52.278 Y38.816 E35.29315
G1 X52.565 Y37.941 E35.32377
G1 X52.928 Y37.095 E35.35439
G1 X53.362 Y36.283 E35.38502
G1 X53.865 Y35.512 E35.41563
G1 X54.434 Y34.788 E35.44626
G1 X55.062 Y34.116 E35.47685
G1 X55.747 Y33.5 E35.50749
G1 X56.483 Y32.947 E35.53811
G1 X57.264 Y32.459 E35.56874
G1 X58.084 Y32.041 E35.59935
G1 X58.938 Y31.696 E35.62999
G1 X59.818 Y31.426 E35.6606
G1 X60.718 Y31.234 E35.69121
G1 X61.632 Y31.12 E35.72185
G1 X62.185 Y31.09 E35.74027
G1 X62.803 Y31.077 E35.76083
G1 X171.82 Y31.077 E39.38675
G1 X171.972 Y31.078 E39.3918
G1 X172.67 Y31.088 E39.41502
G0 F6000 X172.676 Y30.688
G1 F1200 X173.612 Y30.742 E39.4462
G1 X174.54 Y30.874 E39.47738
G1 X175.454 Y31.086 E39.50859
G1 X176.346 Y31.375 E39.53977
G1 X177.211 Y31.738 E39.57097
G1 X178.041 Y32.174 E39.60216
G1 X178.832 Y32.679 E39.63337
G1 X179.576 Y33.25 E39.66456
G1 X180.269 Y33.882 E39.69576
G1 X180.906 Y34.57 E39.72694
G1 X181.481 Y35.311 E39.75814
G1 X181.992 Y36.097 E39.78932
G1 X182.434 Y36.925 E39.82054
G1 X182.803 Y37.787 E39.85172
G1 X183.098 Y38.677 E39.88291
G1 X183.316 Y39.589 E39.9141
G1 X183.456 Y40.517 E39.94531
G1 X183.514 Y41.378 E39.97401
G1 X183.527 Y42.007 E39.99494
G1 X183.526 Y79.001 E41.22536
G1 X183.516 Y79.73 E41.24961
G1 X183.463 Y80.666 E41.2808
G1 X183.331 Y81.595 E41.312
G1 X183.12 Y82.509 E41.3432
G1 X182.741 Y83.638 E41.38281
G1 X182.479 Y84.298 E41.40643
G1 X181.564 Y86.675 E41.49115
G1 X180.723 Y89.056 E41.57513
G1 X179.949 Y91.462 E41.6592
G1 X179.252 Y93.86 E41.74225
G1 X178.613 Y96.319 E41.82676
G1 X178.042 Y98.789 E41.91108
G1 X177.556 Y101.223 E41.99363
G1 X177.127 Y103.728 E42.07816
G1 X176.774 Y106.206 E42.16141
G1 X176.493 Y108.678 E42.24416
G1 X176.276 Y111.241 E42.32971
G1 X176.136 Y113.7 E42.41163
G1 X176.064 Y116.258 E42.49674
G1 X176.064 Y118.747 E42.57953
G1 X176.136 Y121.304 E42.66461
G1 X176.277 Y123.787 E42.74732
G1 X176.489 Y126.277 E42.83044
G1 X176.777 Y128.81 E42.91523
G1 X177.127 Y131.273 E42.99797
G1 X177.561 Y133.8 E43.08325
G1 X178.046 Y136.219 E43.16531
G1 X178.612 Y138.679 E43.24927
G1 X179.251 Y141.136 E43.33371
G1 X179.944 Y143.52 E43.41628
G1 X180.731 Y145.967 E43.50178
G1 X181.556 Y148.303 E43.58417
G1 X182.477 Y150.694 E43.66939
G1 X182.774 Y151.442 E43.69616
G1 X183.075 Y152.33 E43.72735
G1 X183.299 Y153.241 E43.75855
G1 X183.445 Y154.168 E43.78976
G1 X183.508 Y155.013 E43.81795
G1 X183.52 Y155.345 E43.829
G1 X183.527 Y155.742 E43.8422
G1 X183.526 Y192.723 E45.07219
G1 X183.517 Y193.45 E45.09638
G1 X183.466 Y194.387 E45.12759
G1 X183.334 Y195.315 E45.15876
G1 X183.125 Y196.229 E45.18995
G1 X182.838 Y197.122 E45.22115
G1 X182.476 Y197.988 E45.25236
G1 X182.042 Y198.819 E45.28355
G1 X181.538 Y199.61 E45.31474
G1 X180.969 Y200.355 E45.34592
G1 X180.338 Y201.05 E45.37714
G1 X179.651 Y201.688 E45.40833
G1 X178.912 Y202.265 E45.43951
G1 X178.126 Y202.777 E45.47071
G1 X177.3 Y203.22 E45.50188
G1 X176.438 Y203.592 E45.53311
G1 X175.549 Y203.888 E45.56427
G1 X174.637 Y204.108 E45.59548
G1 X173.71 Y204.249 E45.62666
G1 X172.826 Y204.31 E45.65614
G1 X172.197 Y204.323 E45.67706
G1 X63.18 Y204.323 E49.30298
G1 X62.34 Y204.313 E49.33092
G1 X61.404 Y204.261 E49.3621
G1 X60.475 Y204.129 E49.39331
G1 X59.561 Y203.919 E49.4245
G1 X58.668 Y203.632 E49.4557
G1 X57.803 Y203.269 E49.4869
G1 X56.972 Y202.835 E49.51808
G1 X56.181 Y202.331 E49.54928
G1 X55.436 Y201.761 E49.58048
G1 X54.742 Y201.13 E49.61167
G1 X54.105 Y200.443 E49.64283
G1 X53.528 Y199.703 E49.67404
G1 X53.016 Y198.917 E49.70524
G1 X52.573 Y198.09 E49.73645
G1 X52.202 Y197.229 E49.76763
G1 X51.906 Y196.339 E49.79883
G1 X51.687 Y195.427 E49.83002
G1 X51.546 Y194.5 E49.86121
G1 X51.486 Y193.611 E49.89084
G1 X51.473 Y192.981 E49.9118
G1 X51.474 Y155.961 E51.14309
G1 X51.484 Y155.264 E51.16628
G1 X51.538 Y154.328 E51.19746
G1 X51.671 Y153.399 E51.22867
G1 X51.882 Y152.486 E51.25984
G1 X52.257 Y151.369 E51.29903
G1 X52.519 Y150.708 E51.32268
G1 X53.436 Y148.325 E51.4076
G1 X54.277 Y145.944 E51.49159
G1 X55.051 Y143.538 E51.57565
G1 X55.748 Y141.14 E51.65871
G1 X56.387 Y138.681 E51.74322
G1 X56.958 Y136.211 E51.82753
G1 X57.444 Y133.777 E51.91009
G1 X57.873 Y131.272 E51.99462
G1 X58.226 Y128.794 E52.07787
G1 X58.507 Y126.322 E52.16062
G1 X58.724 Y123.759 E52.24617
G1 X58.864 Y121.3 E52.32809
G1 X58.936 Y118.742 E52.4132
G1 X58.936 Y116.253 E52.49598
G1 X58.864 Y113.696 E52.58106
G1 X58.723 Y111.212 E52.66382
G1 X58.511 Y108.719 E52.74703
G1 X58.224 Y106.198 E52.83142
G1 X57.871 Y103.716 E52.9148
G1 X57.441 Y101.212 E52.99931
G1 X56.953 Y98.775 E53.08197
G1 X56.388 Y96.321 E53.16573
G1 X55.755 Y93.887 E53.24938
G1 X55.043 Y91.434 E53.33433
G1 X54.273 Y89.043 E53.41788
G1 X53.446 Y86.7 E53.50052
G1 X52.52 Y84.298 E53.58614
G1 X52.324 Y83.812 E53.60357
G1 X52.211 Y83.517 E53.61408
G1 X51.913 Y82.627 E53.64529
G1 X51.692 Y81.716 E53.67647
G1 X51.549 Y80.789 E53.70767
G1 X51.488 Y79.921 E53.73661
G1 X51.478 Y79.597 E53.74739
G1 X51.473 Y79.258 E53.75867
G1 X51.474 Y42.202 E54.99115
G1 X51.483 Y41.537 E55.01327
G1 X51.536 Y40.601 E55.04446
G1 X51.668 Y39.672 E55.07566
G1 X51.879 Y38.758 E55.10686
G1 X52.167 Y37.866 E55.13804
G1 X52.53 Y37.001 E55.16924
G1 X52.965 Y36.17 E55.20044
G1 X53.469 Y35.38 E55.2316
G1 X54.039 Y34.635 E55.2628
G1 X54.671 Y33.941 E55.29402
G1 X55.359 Y33.304 E55.32521
G1 X56.099 Y32.728 E55.3564
G1 X56.885 Y32.216 E55.3876
G1 X57.712 Y31.774 E55.41879
G1 X58.574 Y31.404 E55.44999
G1 X59.464 Y31.108 E55.48118
G1 X60.376 Y30.89 E55.51237
G1 X61.303 Y30.749 E55.54356
G1 X62.174 Y30.69 E55.57259
G1 X62.803 Y30.677 E55.59352
G1 X171.82 Y30.677 E59.21944
G1 X171.978 Y30.678 E59.22469
G1 X172.676 Y30.688 E59.24791
G1 F2700 E54.24791
;MESH:Modular - Wheel Mount v5.obj
G0 F6000 X134.594 Y52.512
G0 X134.594 Y51.077
G0 X90.099 Y51.419
G0 X89.927 Y77.144
;TYPE:WALL-INNER
G1 F2700 E59.24791
G1 F1200 X145.073 Y77.144 E61.08207
G1 X145.073 Y51.247 E61.94341
G1 X89.927 Y51.247 E63.77758
G1 X89.927 Y77.144 E64.63891
