;FLAVOR:Marlin
;TIME:21942
;Filament used: 14.013m
;Layer height: 0.2
;MINX:51.473
;MINY:15.629
;MINZ:0.2
;MAXX:183.527
;MAXY:219.371
;MAXZ:30.6
;Generated with Cura_SteamEngine 4.6.1
M140 S50
M105
M190 S50
M104 S200
M105
M109 S200
M82 ;absolute extrusion mode
; Ender 3 Custom Start G-code
G92 E0 ; Reset Extruder
G28 ; Home all axes
G1 Z2.0 F3000 ; Move Z Axis up little to prevent scratching of Heat Bed
G1 X0.1 Y20 Z0.3 F5000.0 ; Move to start position
G1 X0.1 Y200.0 Z0.3 F1500.0 E15 ; Draw the first line
G1 X0.4 Y200.0 Z0.3 F5000.0 ; Move to side a little
G1 X0.4 Y20 Z0.3 F1500.0 E30 ; Draw the second line
G92 E0 ; Reset Extruder
G1 Z2.0 F3000 ; Move Z Axis up little to prevent scratching of Heat Bed
G1 X5 Y20 Z0.3 F5000.0 ; Move over to prevent blob squish
G92 E0
G92 E0
G1 F2700 E-5
;LAYER_COUNT:153
;LAYER:0
M107
G0 F6000 X80.621 Y16.44 Z0.2
;TYPE:SKIRT
G1 F2700 E0
G1 F1200 X81.523 Y16.493 E0.03005
G1 X82.416 Y16.625 E0.06008
G1 X83.294 Y16.836 E0.09011
G1 X83.912 Y17.036 E0.11171
G1 X84.414 Y17.218 E0.12947
G1 X86.393 Y17.981 E0.20002
G1 X88.802 Y18.832 E0.285
G1 X91.205 Y19.605 E0.36895
G1 X93.625 Y20.308 E0.45277
G1 X96.119 Y20.958 E0.53849
G1 X98.586 Y21.527 E0.6227
G1 X101.084 Y22.027 E0.70743
G1 X103.555 Y22.45 E0.79081
G1 X106.068 Y22.808 E0.87524
G1 X108.632 Y23.1 E0.96107
G1 X111.12 Y23.312 E1.04412
G1 X113.681 Y23.457 E1.12944
G1 X116.219 Y23.53 E1.21388
G1 X118.753 Y23.53 E1.29817
G1 X121.28 Y23.459 E1.38225
G1 X123.821 Y23.315 E1.4669
G1 X126.37 Y23.099 E1.55198
G1 X128.889 Y22.813 E1.6363
G1 X131.383 Y22.458 E1.72009
G1 X133.907 Y22.026 E1.80526
G1 X136.391 Y21.528 E1.88952
G1 X138.833 Y20.967 E1.97286
G1 X141.34 Y20.315 E2.05901
G1 X143.759 Y19.612 E2.1428
G1 X146.18 Y18.834 E2.22738
G1 X148.606 Y17.978 E2.31294
G1 X149.89 Y17.493 E2.35859
G1 X150.846 Y17.124 E2.39268
G1 X151.702 Y16.837 E2.4227
G1 X152.58 Y16.626 E2.45274
G1 X153.474 Y16.494 E2.48279
G1 X154.176 Y16.446 E2.5062
G1 X154.503 Y16.435 E2.51708
G1 X154.846 Y16.429 E2.52849
G1 X171.952 Y16.43 E3.09744
G1 X172.65 Y16.439 E3.12066
G1 X173.551 Y16.49 E3.15067
G1 X174.445 Y16.622 E3.18073
G1 X175.323 Y16.831 E3.21075
G1 X176.18 Y17.118 E3.24081
G1 X177.007 Y17.479 E3.27082
G1 X177.8 Y17.912 E3.30087
G1 X178.551 Y18.413 E3.3309
G1 X179.255 Y18.979 E3.36094
G1 X179.906 Y19.605 E3.39098
G1 X180.499 Y20.286 E3.42101
G1 X181.029 Y21.017 E3.45104
G1 X181.493 Y21.792 E3.48109
G1 X181.887 Y22.605 E3.51114
G1 X182.207 Y23.449 E3.54116
G1 X182.451 Y24.319 E3.57121
G1 X182.617 Y25.207 E3.60126
G1 X182.714 Y26.352 E3.63948
G1 X182.727 Y26.959 E3.65967
G1 X182.726 Y78.99 E5.39023
G1 X182.716 Y79.719 E5.41448
G1 X182.664 Y80.62 E5.44449
G1 X182.532 Y81.514 E5.47455
G1 X182.321 Y82.392 E5.50458
G1 X181.997 Y83.342 E5.53797
G1 X181.774 Y83.904 E5.55808
G1 X180.811 Y86.406 E5.64725
G1 X179.958 Y88.819 E5.73237
G1 X179.185 Y91.225 E5.81642
G1 X178.475 Y93.669 E5.90107
G1 X177.836 Y96.124 E5.98545
G1 X177.261 Y98.616 E6.07051
G1 X176.768 Y101.081 E6.15412
G1 X176.339 Y103.588 E6.23871
G1 X175.986 Y106.071 E6.32213
G1 X175.695 Y108.627 E6.40769
G1 X175.48 Y111.162 E6.49231
G1 X175.336 Y113.702 E6.57692
G1 X175.264 Y116.236 E6.66124
G1 X175.264 Y118.769 E6.74549
G1 X175.336 Y121.302 E6.82977
G1 X175.481 Y123.865 E6.91515
G1 X175.694 Y126.363 E6.99854
G1 X175.983 Y128.91 E7.08379
G1 X176.339 Y131.412 E7.16785
G1 X176.769 Y133.914 E7.25229
G1 X177.269 Y136.412 E7.33702
G1 X177.83 Y138.849 E7.42019
G1 X178.483 Y141.36 E7.50649
G1 X179.183 Y143.769 E7.58992
G1 X179.963 Y146.194 E7.67465
G1 X180.814 Y148.603 E7.75963
G1 X181.73 Y150.98 E7.84435
G1 X182.028 Y151.731 E7.87122
G1 X182.316 Y152.587 E7.90126
G1 X182.528 Y153.465 E7.93131
G1 X182.661 Y154.358 E7.96133
G1 X182.708 Y155.042 E7.98414
G1 X182.72 Y155.374 E7.99519
G1 X182.727 Y155.742 E8.00743
G1 X182.726 Y207.761 E9.73759
G1 X182.717 Y208.488 E9.76177
G1 X182.666 Y209.39 E9.79182
G1 X182.535 Y210.284 E9.82187
G1 X182.326 Y211.162 E9.85189
G1 X182.04 Y212.019 E9.88194
G1 X181.679 Y212.847 E9.91198
G1 X181.247 Y213.639 E9.94199
G1 X180.746 Y214.391 E9.97204
G1 X180.18 Y215.095 E10.00209
G1 X179.555 Y215.746 E10.0321
G1 X178.874 Y216.34 E10.06216
G1 X178.143 Y216.871 E10.09221
G1 X177.369 Y217.335 E10.12222
G1 X176.556 Y217.729 E10.15227
G1 X175.712 Y218.049 E10.18229
G1 X174.842 Y218.294 E10.21235
G1 X173.955 Y218.46 E10.24237
G1 X172.804 Y218.558 E10.28079
G1 X172.197 Y218.571 E10.30098
G1 X155.077 Y218.57 E10.8704
G1 X154.379 Y218.56 E10.89361
G1 X153.477 Y218.507 E10.92367
G1 X152.584 Y218.375 E10.95369
G1 X151.706 Y218.164 E10.98372
G1 X151.094 Y217.967 E11.00511
G1 X150.576 Y217.778 E11.02345
G1 X148.625 Y217.026 E11.09299
G1 X146.207 Y216.172 E11.17828
G1 X143.784 Y215.392 E11.26295
G1 X141.375 Y214.692 E11.34638
G1 X138.868 Y214.039 E11.43255
G1 X136.404 Y213.47 E11.51666
G1 X133.939 Y212.977 E11.60027
G1 X131.445 Y212.55 E11.68443
G1 X128.932 Y212.192 E11.76885
G1 X126.368 Y211.9 E11.85468
G1 X123.88 Y211.688 E11.93773
G1 X121.319 Y211.543 E12.02305
G1 X118.781 Y211.47 E12.1075
G1 X116.247 Y211.47 E12.19178
G1 X113.72 Y211.541 E12.27586
G1 X111.179 Y211.685 E12.36051
G1 X108.63 Y211.901 E12.4456
G1 X106.111 Y212.187 E12.52992
G1 X103.617 Y212.542 E12.6137
G1 X101.093 Y212.974 E12.69887
G1 X98.609 Y213.472 E12.78313
G1 X96.167 Y214.033 E12.86647
G1 X93.66 Y214.685 E12.95263
G1 X91.241 Y215.388 E13.03641
G1 X88.82 Y216.166 E13.12099
G1 X86.394 Y217.022 E13.20656
G1 X85.11 Y217.507 E13.25221
G1 X84.154 Y217.876 E13.28629
G1 X83.298 Y218.163 E13.31632
G1 X82.42 Y218.374 E13.34635
G1 X81.526 Y218.506 E13.37641
G1 X80.824 Y218.554 E13.39981
G1 X80.497 Y218.565 E13.41069
G1 X80.154 Y218.571 E13.4221
G1 X63.048 Y218.57 E13.99105
G1 X62.35 Y218.561 E14.01427
G1 X61.449 Y218.51 E14.04429
G1 X60.555 Y218.378 E14.07434
G1 X59.677 Y218.169 E14.10436
G1 X58.82 Y217.882 E14.13442
G1 X57.993 Y217.521 E14.16443
G1 X57.2 Y217.088 E14.19448
G1 X56.449 Y216.587 E14.22451
G1 X55.745 Y216.021 E14.25455
G1 X55.094 Y215.395 E14.28459
G1 X54.501 Y214.714 E14.31463
G1 X53.971 Y213.983 E14.34466
G1 X53.507 Y213.208 E14.3747
G1 X53.113 Y212.395 E14.40475
G1 X52.793 Y211.551 E14.43477
G1 X52.549 Y210.681 E14.46482
G1 X52.383 Y209.793 E14.49487
G1 X52.286 Y208.638 E14.53342
G1 X52.273 Y208.029 E14.55368
G1 X52.274 Y155.973 E16.28507
G1 X52.284 Y155.276 E16.30826
G1 X52.337 Y154.374 E16.33831
G1 X52.469 Y153.481 E16.36833
G1 X52.68 Y152.603 E16.39837
G1 X53.001 Y151.664 E16.43137
G1 X53.226 Y151.096 E16.45169
G1 X54.189 Y148.594 E16.54086
G1 X55.042 Y146.181 E16.62598
G1 X55.815 Y143.775 E16.71004
G1 X56.525 Y141.331 E16.79469
G1 X57.164 Y138.876 E16.87906
G1 X57.739 Y136.384 E16.96412
G1 X58.232 Y133.919 E17.04773
G1 X58.661 Y131.412 E17.13233
G1 X59.014 Y128.929 E17.21574
G1 X59.305 Y126.373 E17.3013
G1 X59.52 Y123.838 E17.38592
G1 X59.664 Y121.298 E17.47054
G1 X59.736 Y118.764 E17.55485
G1 X59.736 Y116.231 E17.6391
G1 X59.664 Y113.698 E17.72338
G1 X59.519 Y111.137 E17.8087
G1 X59.306 Y108.63 E17.89238
G1 X59.018 Y106.098 E17.97714
G1 X58.659 Y103.577 E18.06183
G1 X58.233 Y101.091 E18.14572
G1 X57.731 Y98.588 E18.23063
G1 X57.17 Y96.151 E18.31381
G1 X56.517 Y93.64 E18.4001
G1 X55.82 Y91.241 E18.48319
G1 X55.03 Y88.785 E18.569
G1 X54.195 Y86.419 E18.65245
G1 X53.263 Y84.002 E18.73861
G1 X53.071 Y83.526 E18.75568
G1 X52.958 Y83.231 E18.76619
G1 X52.672 Y82.374 E18.79624
G1 X52.464 Y81.495 E18.82628
G1 X52.334 Y80.601 E18.85633
G1 X52.288 Y79.897 E18.87979
G1 X52.273 Y79.258 E18.90105
G1 X52.274 Y27.165 E20.63367
G1 X52.283 Y26.5 E20.65579
G1 X52.335 Y25.598 E20.68584
G1 X52.467 Y24.705 E20.71587
G1 X52.677 Y23.827 E20.74589
G1 X52.964 Y22.97 E20.77595
G1 X53.326 Y22.143 E20.80598
G1 X53.759 Y21.351 E20.836
G1 X54.261 Y20.6 E20.86604
G1 X54.828 Y19.896 E20.89611
G1 X55.454 Y19.246 E20.92612
G1 X56.135 Y18.653 E20.95616
G1 X56.867 Y18.123 E20.98622
G1 X57.642 Y17.66 E21.01624
G1 X58.455 Y17.267 E21.04628
G1 X59.3 Y16.947 E21.07633
G1 X60.169 Y16.704 E21.10634
G1 X61.057 Y16.538 E21.13639
G1 X62.196 Y16.442 E21.17441
G1 X62.803 Y16.429 E21.1946
G1 X79.923 Y16.43 E21.76401
G1 X80.621 Y16.44 E21.78723
G0 F6000 X80.627 Y16.04
G1 F1200 X81.546 Y16.093 E21.81785
G1 X82.457 Y16.226 E21.84847
G1 X83.353 Y16.437 E21.87909
G1 X84.047 Y16.659 E21.90332
G1 X84.558 Y16.845 E21.92141
G1 X86.534 Y17.606 E21.99183
G1 X88.92 Y18.449 E22.076
G1 X91.324 Y19.223 E22.16
G1 X93.732 Y19.923 E22.24341
G1 X96.205 Y20.567 E22.3284
G1 X98.683 Y21.138 E22.41298
G1 X101.124 Y21.627 E22.49578
G1 X103.643 Y22.059 E22.58079
G1 X106.138 Y22.414 E22.66461
G1 X108.64 Y22.699 E22.74836
G1 X111.178 Y22.915 E22.83308
G1 X113.678 Y23.057 E22.91636
G1 X116.231 Y23.13 E23.00131
G1 X118.742 Y23.13 E23.08483
G1 X121.28 Y23.059 E23.16928
G1 X123.803 Y22.916 E23.25333
G1 X126.325 Y22.702 E23.33751
G1 X128.824 Y22.418 E23.42116
G1 X131.326 Y22.062 E23.50522
G1 X133.839 Y21.632 E23.59001
G1 X136.287 Y21.141 E23.67306
G1 X138.748 Y20.576 E23.75704
G1 X141.232 Y19.93 E23.84241
G1 X143.641 Y19.23 E23.92584
G1 X146.062 Y18.451 E24.01043
G1 X148.457 Y17.607 E24.09489
G1 X149.768 Y17.112 E24.1415
G1 X150.702 Y16.751 E24.1748
G1 X151.575 Y16.457 E24.20544
G1 X152.469 Y16.24 E24.23604
G1 X153.379 Y16.101 E24.26666
G1 X154.163 Y16.046 E24.2928
G1 X154.49 Y16.035 E24.30368
G1 X154.846 Y16.029 E24.31552
G1 X171.957 Y16.03 E24.88464
G1 X172.655 Y16.039 E24.90785
G1 X173.574 Y16.091 E24.93847
G1 X174.485 Y16.222 E24.96908
G1 X175.381 Y16.432 E24.99969
G1 X176.256 Y16.719 E25.03032
G1 X177.103 Y17.081 E25.06095
G1 X177.915 Y17.515 E25.09158
G1 X178.686 Y18.017 E25.12218
G1 X179.411 Y18.585 E25.15281
G1 X180.084 Y19.214 E25.18345
G1 X180.699 Y19.898 E25.21404
G1 X181.253 Y20.633 E25.24466
G1 X181.741 Y21.414 E25.27529
G1 X182.16 Y22.234 E25.30591
G1 X182.506 Y23.087 E25.33653
G1 X182.776 Y23.967 E25.36714
G1 X182.969 Y24.868 E25.39779
G1 X183.083 Y25.781 E25.42839
G1 X183.114 Y26.341 E25.44705
G1 X183.127 Y26.959 E25.46761
G1 X183.126 Y78.995 E27.19833
G1 X183.116 Y79.724 E27.22258
G1 X183.063 Y80.644 E27.25323
G1 X182.931 Y81.555 E27.28385
G1 X182.721 Y82.451 E27.31446
G1 X182.369 Y83.49 E27.35094
G1 X182.107 Y84.15 E27.37456
G1 X181.189 Y86.535 E27.45956
G1 X180.341 Y88.937 E27.54428
G1 X179.567 Y91.343 E27.62835
G1 X178.87 Y93.744 E27.7115
G1 X178.219 Y96.243 E27.79739
G1 X177.655 Y98.687 E27.88081
G1 X177.163 Y101.149 E27.96432
G1 X176.729 Y103.681 E28.04976
G1 X176.38 Y106.136 E28.13224
G1 X176.092 Y108.67 E28.21706
G1 X175.879 Y111.183 E28.30094
G1 X175.736 Y113.702 E28.38486
G1 X175.664 Y116.247 E28.46954
G1 X175.664 Y118.758 E28.55306
G1 X175.736 Y121.302 E28.63771
G1 X175.878 Y123.809 E28.72122
G1 X176.095 Y126.355 E28.80621
G1 X176.377 Y128.84 E28.88939
G1 X176.737 Y131.365 E28.97422
G1 X177.161 Y133.84 E29.05774
G1 X177.658 Y136.316 E29.14174
G1 X178.219 Y138.756 E29.22501
G1 X178.868 Y141.252 E29.31079
G1 X179.565 Y143.65 E29.39384
G1 X180.345 Y146.075 E29.47857
G1 X181.192 Y148.474 E29.56319
G1 X182.092 Y150.81 E29.64645
G1 X182.401 Y151.586 E29.67423
G1 X182.696 Y152.459 E29.70488
G1 X182.914 Y153.353 E29.73549
G1 X183.053 Y154.263 E29.7661
G1 X183.108 Y155.027 E29.79158
G1 X183.12 Y155.359 E29.80263
G1 X183.127 Y155.742 E29.81537
G1 X183.126 Y207.766 E31.5457
G1 X183.117 Y208.493 E31.56988
G1 X183.066 Y209.412 E31.60049
G1 X182.935 Y210.324 E31.63114
G1 X182.725 Y211.22 E31.66174
G1 X182.439 Y212.095 E31.69236
G1 X182.078 Y212.942 E31.72299
G1 X181.644 Y213.754 E31.75361
G1 X181.142 Y214.526 E31.78424
G1 X180.574 Y215.251 E31.81487
G1 X179.946 Y215.924 E31.84548
G1 X179.262 Y216.54 E31.8761
G1 X178.527 Y217.094 E31.90671
G1 X177.747 Y217.583 E31.93733
G1 X176.927 Y218.002 E31.96796
G1 X176.074 Y218.348 E31.99858
G1 X175.194 Y218.619 E32.0292
G1 X174.294 Y218.812 E32.05982
G1 X173.38 Y218.927 E32.09046
G1 X172.815 Y218.958 E32.10928
G1 X172.197 Y218.971 E32.12984
G1 X155.071 Y218.97 E32.69945
G1 X154.373 Y218.96 E32.72267
G1 X153.454 Y218.907 E32.75328
G1 X152.543 Y218.774 E32.7839
G1 X151.647 Y218.563 E32.81452
G1 X150.96 Y218.343 E32.83851
G1 X150.433 Y218.152 E32.85716
G1 X148.465 Y217.394 E32.9273
G1 X146.099 Y216.558 E33.01076
G1 X143.655 Y215.771 E33.09616
G1 X141.268 Y215.077 E33.17884
G1 X138.783 Y214.43 E33.26425
G1 X136.333 Y213.864 E33.34788
G1 X133.871 Y213.372 E33.43139
G1 X131.357 Y212.941 E33.51622
G1 X128.862 Y212.586 E33.60004
G1 X126.36 Y212.301 E33.6838
G1 X123.822 Y212.085 E33.76852
G1 X121.322 Y211.943 E33.8518
G1 X118.769 Y211.87 E33.93675
G1 X116.258 Y211.87 E34.02026
G1 X113.72 Y211.941 E34.10471
G1 X111.197 Y212.084 E34.18876
G1 X108.675 Y212.298 E34.27295
G1 X106.176 Y212.582 E34.3566
G1 X103.674 Y212.938 E34.44065
G1 X101.161 Y213.368 E34.52545
G1 X98.713 Y213.859 E34.60849
G1 X96.252 Y214.424 E34.69247
G1 X93.768 Y215.07 E34.77784
G1 X91.359 Y215.77 E34.86128
G1 X88.938 Y216.549 E34.94587
G1 X86.543 Y217.393 E35.03033
G1 X85.254 Y217.88 E35.07616
G1 X84.298 Y218.249 E35.11024
G1 X83.425 Y218.543 E35.14088
G1 X82.531 Y218.76 E35.17148
G1 X81.621 Y218.899 E35.20209
G1 X80.837 Y218.954 E35.22823
G1 X80.51 Y218.965 E35.23912
G1 X80.154 Y218.971 E35.25096
G1 X63.043 Y218.97 E35.82007
G1 X62.345 Y218.961 E35.84329
G1 X61.426 Y218.909 E35.87391
G1 X60.515 Y218.778 E35.90452
G1 X59.619 Y218.568 E35.93513
G1 X58.744 Y218.281 E35.96575
G1 X57.897 Y217.919 E35.99639
G1 X57.085 Y217.485 E36.02701
G1 X56.314 Y216.983 E36.05761
G1 X55.589 Y216.415 E36.08825
G1 X54.916 Y215.786 E36.11888
G1 X54.301 Y215.102 E36.14948
G1 X53.747 Y214.367 E36.18009
G1 X53.259 Y213.586 E36.21072
G1 X52.84 Y212.766 E36.24135
G1 X52.494 Y211.913 E36.27196
G1 X52.224 Y211.033 E36.30258
G1 X52.031 Y210.132 E36.33323
G1 X51.917 Y209.219 E36.36383
G1 X51.886 Y208.648 E36.38285
G1 X51.873 Y208.029 E36.40344
G1 X51.874 Y155.967 E38.13503
G1 X51.884 Y155.27 E38.15822
G1 X51.937 Y154.351 E38.18883
G1 X52.07 Y153.44 E38.21945
G1 X52.281 Y152.544 E38.25007
G1 X52.629 Y151.516 E38.28617
G1 X52.891 Y150.855 E38.30982
G1 X53.811 Y148.465 E38.39499
G1 X54.659 Y146.063 E38.47972
G1 X55.433 Y143.657 E38.56378
G1 X56.13 Y141.256 E38.64693
G1 X56.781 Y138.757 E38.73283
G1 X57.345 Y136.313 E38.81625
G1 X57.837 Y133.851 E38.89976
G1 X58.271 Y131.319 E38.9852
G1 X58.62 Y128.864 E39.06767
G1 X58.908 Y126.33 E39.1525
G1 X59.121 Y123.817 E39.23638
G1 X59.264 Y121.298 E39.3203
G1 X59.336 Y118.753 E39.40498
G1 X59.336 Y116.242 E39.48849
G1 X59.264 Y113.698 E39.57314
G1 X59.122 Y111.193 E39.65659
G1 X58.904 Y108.638 E39.74188
G1 X58.624 Y106.163 E39.82472
G1 X58.263 Y103.635 E39.90966
G1 X57.84 Y101.166 E39.99297
G1 X57.341 Y98.678 E40.07737
G1 X56.781 Y96.244 E40.16044
G1 X56.129 Y93.738 E40.24657
G1 X55.432 Y91.337 E40.32972
G1 X54.659 Y88.935 E40.41365
G1 X53.82 Y86.56 E40.49743
G1 X52.896 Y84.161 E40.58293
G1 X52.697 Y83.669 E40.60058
G1 X52.584 Y83.374 E40.61109
G1 X52.293 Y82.5 E40.64173
G1 X52.078 Y81.605 E40.67234
G1 X51.942 Y80.695 E40.70294
G1 X51.888 Y79.909 E40.72915
G1 X51.878 Y79.585 E40.73993
G1 X51.873 Y79.258 E40.75081
G1 X51.874 Y27.16 E42.48359
G1 X51.883 Y26.495 E42.50571
G1 X51.935 Y25.575 E42.53636
G1 X52.067 Y24.664 E42.56698
G1 X52.278 Y23.768 E42.59759
G1 X52.565 Y22.893 E42.62822
G1 X52.928 Y22.047 E42.65884
G1 X53.362 Y21.235 E42.68946
G1 X53.865 Y20.464 E42.72008
G1 X54.434 Y19.74 E42.75071
G1 X55.062 Y19.068 E42.7813
G1 X55.747 Y18.452 E42.81194
G1 X56.483 Y17.899 E42.84256
G1 X57.264 Y17.411 E42.87319
G1 X58.084 Y16.993 E42.9038
G1 X58.938 Y16.648 E42.93444
G1 X59.818 Y16.378 E42.96505
G1 X60.718 Y16.186 E42.99566
G1 X61.632 Y16.072 E43.0263
G1 X62.185 Y16.042 E43.04472
G1 X62.803 Y16.029 E43.06528
G1 X79.929 Y16.03 E43.63489
G1 X80.627 Y16.04 E43.65811
G0 F6000 X80.633 Y15.64
G1 F1200 X81.569 Y15.694 E43.68929
G1 X82.497 Y15.826 E43.72047
G1 X83.411 Y16.038 E43.75167
G1 X84.182 Y16.282 E43.77857
G1 X84.702 Y16.472 E43.79698
G1 X86.674 Y17.232 E43.86728
G1 X89.028 Y18.064 E43.95032
G1 X91.453 Y18.844 E44.03504
G1 X93.84 Y19.538 E44.11772
G1 X96.298 Y20.178 E44.2022
G1 X98.778 Y20.75 E44.28685
G1 X101.198 Y21.234 E44.36893
G1 X103.695 Y21.662 E44.4532
G1 X106.203 Y22.019 E44.53745
G1 X108.683 Y22.302 E44.62047
G1 X111.198 Y22.516 E44.70443
